svg/dita-ot-logo.svg

<?xml version="1.0" encoding="UTF-8" standalone="no"?>
<!-- Created with Inkscape (http://www.inkscape.org/) -->

<svg
   xmlns:dc="http://purl.org/dc/elements/1.1/"
   xmlns:cc="http://creativecommons.org/ns#"
   xmlns:rdf="http://www.w3.org/1999/02/22-rdf-syntax-ns#"
   xmlns:svg="http://www.w3.org/2000/svg"
   xmlns="http://www.w3.org/2000/svg"
   xmlns:sodipodi="http://sodipodi.sourceforge.net/DTD/sodipodi-0.dtd"
   xmlns:inkscape="http://www.inkscape.org/namespaces/inkscape"
   width="480"
   height="480"
   viewBox="0 0 480 480"
   id="svg4816"
   version="1.1"
   inkscape:version="0.91 r13725"
   sodipodi:docname="dita-ot-logo.svg">
  <defs
     id="defs4818" />
  <sodipodi:namedview
     id="base"
     pagecolor="#ffffff"
     bordercolor="#666666"
     borderopacity="1.0"
     inkscape:pageopacity="0.0"
     inkscape:pageshadow="2"
     inkscape:zoom="1.4142136"
     inkscape:cx="285.78644"
     inkscape:cy="336.22594"
     inkscape:document-units="px"
     inkscape:current-layer="g50"
     showgrid="false"
     borderlayer="true"
     units="px"
     showborder="false"
     width="480px"
     inkscape:window-width="2560"
     inkscape:window-height="1395"
     inkscape:window-x="-1"
     inkscape:window-y="1"
     inkscape:window-maximized="0"
     showguides="true"
     inkscape:guide-bbox="true"
     inkscape:pagecheckerboard="true"
     inkscape:snap-global="false" />
  <metadata
     id="metadata4821">
    <rdf:RDF>
      <cc:Work
         rdf:about="">
        <dc:format>image/svg+xml</dc:format>
        <dc:type
           rdf:resource="http://purl.org/dc/dcmitype/StillImage" />
        <dc:title></dc:title>
      </cc:Work>
    </rdf:RDF>
  </metadata>
  <g
     inkscape:label="Layer 1"
     inkscape:groupmode="layer"
     id="layer1"
     transform="translate(0,-572.3622)"
     style="display:inline">
    <g
       id="g50"
       transform="translate(-606.57326,-12.948375)">
      <path
         style="opacity:1;fill:#1d365d;fill-opacity:1;stroke:none;stroke-width:10.06999969;stroke-miterlimit:4;stroke-dasharray:none;stroke-opacity:1"
         d="m 66.867188,0.11132812 c -37.1586,0 -67.07421925,29.91376588 -67.07421925,67.07226588 l 0,345.853516 c 0,37.15859 29.91561925,67.07422 67.07421925,67.07422 l 345.853512,0 c 37.1585,0 67.07227,-29.91563 67.07227,-67.07422 l 0,-136.2832 -5.22461,0 -29.77539,0 -2.22461,0 -93.25391,75.94726 0.0117,0.0117 -0.11914,0.16797 c -0.3181,0.24304 -0.62762,0.46106 -0.95312,0.72656 -6.1958,5.05336 -16.78026,9.67545 -30.94336,-3.90039 -0.7584,-0.7269 -2.34571,-2.10547 -2.34571,-2.10547 l -37.15039,-30.36523 c 11.3306,2.96296 24.40179,4.46796 38.52539,3.25 8.85119,-0.76334 17.43555,-3.1244 25.6543,-6.64453 l 10.79688,-5.38672 c 25.77494,-14.70154 47.08931,-40.01366 60.22851,-61.51953 18.9439,-31.00655 21.5575,-70.66576 20.9043,-82.20313 -0.6532,-11.53737 -5.88086,-55.52431 -5.88086,-64.898436 0,-9.37412 1.96094,-15.140625 1.96094,-15.140625 L 463.31836,71.712891 437.8418,47.195312 c 0,0 -1.30426,-12.979385 -5.87696,-22.353515 C 427.39214,15.467677 412.36593,5.3722344 387.54297,3.2089844 385.99149,3.0738244 384.43542,3 382.87695,3 c -28.68003,-0.6016201 -48.58184,9.659163 -55.88281,20.689453 -10.51012,15.878679 -23.7166,66.050235 -29.5957,85.519527 -0.31137,1.03112 -0.71749,2.11518 -1.17578,3.23047 2.65697,2.23481 5.36092,4.71852 7.55468,6.73828 26.00274,20.64927 13.78947,71.04695 -2.52343,100.97071 -14.31133,26.25215 -32.95147,51.20154 -50.81836,74.70898 l -0.14063,-0.11523 c -2.70583,3.7775 -5.69661,7.80149 -8.84375,11.94726 -0.33749,0.44478 -0.69508,0.91385 -1.03125,1.35743 l 0.004,0 c -3.39322,4.44815 -6.97299,9.04074 -10.64649,13.67968 l 78.54493,64.33594 c 2.91326,2.10616 5.79224,3.78482 8.59961,5.125 l 0,53.92383 -206.09766,0 0,-220.82227 68.29687,55.94336 c 3.25942,-14.81145 5.4072,-23.44136 8.94532,-36.35156 l -77.44922,-63.30274 178.45703,-145.337886 0,-0.128906 0,-13.664062 0,-21.33593788 z m 4.486328,34.99999988 164.435544,0 -1.04297,0.707031 C 187.2729,73.991874 139.7584,112.20122 92.308594,150.35547 c -9.9106,7.86546 -15.441406,17.90165 -15.441406,29.60547 0,0.48466 0.0224,0.96386 0.04297,1.44336 l -0.0293,0 0,263.70703 -5.527343,0 c -20.2542,0 -36.560547,-16.30636 -36.560547,-36.56055 l 0,-336.878905 c 0,-20.2542 16.306347,-36.560547 36.560548,-36.560547 z M 282.10547,124.49805 c -7.36045,-0.22942 -15.93476,6.86959 -20.39844,12.26367 -11.56097,13.97073 -13.83069,18.02578 -19.97656,27.56445 -6.41851,9.96182 -12.58976,20.15141 -17.5918,30.89453 -9.00272,19.33557 -16.09213,39.57825 -22.17383,60.02149 -3.5895,12.06585 -7.09241,25.28639 -10.40429,40.69336 -6.82848,31.76633 -9.73638,46.11239 -10.29423,53.77907 -0.22341,3.07032 0.90732,1.6791 1.9375,0.66797 14.50196,-14.23378 26.6945,-30.34394 33.72782,-39.17947 7.5139,-9.43925 13.87004,-17.83073 20.51367,-26.96289 27.47736,-37.8149 33.29554,-42.69066 49.20313,-72 17.70029,-32.61236 21.39322,-73.04603 0.29297,-86.30078 -1.50379,-0.94465 -3.13738,-1.38846 -4.83594,-1.4414 z m 162.6875,194.52734 0,89.52539 c 0,20.25419 -16.30431,36.56055 -36.55859,36.56055 l -53.50782,0 0,-53.17774 c 1.93265,-0.98302 4.07058,-2.3369 6.07617,-4.20312 0.1332,-0.0795 0.26414,-0.14785 0.39844,-0.23242 z"
         transform="translate(606.57326,585.31058)"
         id="rect5672"
         inkscape:connector-curvature="0"
         sodipodi:nodetypes="sssssscccccccccccsccssscccsccssccsccccccccccccccccccsscccscccssssssssssssscssscssccccc" />
      <path
         inkscape:connector-curvature="0"
         id="path4490-2-3-8-7-6-3-5-7"
         d="m 1056.3619,653.36023 -23.8682,-23.2907 c 0,0 -9.5473,1.94097 -13.2601,5.82279 -3.7129,3.88171 -6.8953,10.99817 -6.8953,10.99817 0,0 2.6521,2.58792 3.7128,8.41059 1.0608,5.82268 1.5913,12.93926 1.5913,12.93926 z"
         style="font-style:normal;font-weight:normal;font-size:medium;line-height:125%;font-family:sans-serif;letter-spacing:0px;word-spacing:0px;fill:#ffffff;fill-opacity:1;fill-rule:evenodd;stroke:#000000;stroke-width:1.74025548px;stroke-linecap:butt;stroke-linejoin:miter;stroke-miterlimit:4;stroke-dasharray:none;stroke-opacity:0" />
      <path
         inkscape:connector-curvature="0"
         id="path4496-3-9-8-7-9-8-2-9"
         d="m 994.09947,618.28281 c 4.37714,-1.46342 11.92303,-2.94245 13.04883,4.62995 1.3655,9.18451 -1.3736,13.11823 -8.92818,14.66159 -7.55454,1.54336 -16.48259,-0.77161 -16.48259,-6.1733 0,-5.40158 6.45909,-11.14472 12.36194,-13.11824 z"
         style="font-style:normal;font-weight:normal;font-size:medium;line-height:125%;font-family:sans-serif;letter-spacing:0px;word-spacing:0px;fill:#ffffff;fill-opacity:1;fill-rule:evenodd;stroke:#000000;stroke-width:2.16267872px;stroke-linecap:butt;stroke-linejoin:miter;stroke-miterlimit:4;stroke-dasharray:none;stroke-opacity:0"
         sodipodi:nodetypes="sssss" />
    </g>
  </g>
</svg>

<?xml version="1.0" encoding="UTF-8" standalone="no"?>
<!-- Created with Inkscape (http://www.inkscape.org/) -->

<svg
   xmlns:dc="http://purl.org/dc/elements/1.1/"
   xmlns:cc="http://creativecommons.org/ns#"
   xmlns:rdf="http://www.w3.org/1999/02/22-rdf-syntax-ns#"
   xmlns:svg="http://www.w3.org/2000/svg"
   xmlns="http://www.w3.org/2000/svg"
   xmlns:sodipodi="http://sodipodi.sourceforge.net/DTD/sodipodi-0.dtd"
   xmlns:inkscape="http://www.inkscape.org/namespaces/inkscape"
   width="480"
   height="480"
   viewBox="0 0 480 480"
   id="svg4816"
   version="1.1"
   inkscape:version="0.91 r13725"
   sodipodi:docname="dita-ot-logo.svg">
  <style
   type="text/css"
   id="style3386">
   .fill {
     fill: #1d365d
   }
  </style>
  <defs
     id="defs4818" />
  <sodipodi:namedview
     id="base"
     pagecolor="#ffffff"
     bordercolor="#666666"
     borderopacity="1.0"
     inkscape:pageopacity="0.0"
     inkscape:pageshadow="2"
     inkscape:zoom="1.4142136"
     inkscape:cx="285.78644"
     inkscape:cy="336.22594"
     inkscape:document-units="px"
     inkscape:current-layer="g50"
     showgrid="false"
     borderlayer="true"
     units="px"
     showborder="false"
     width="480px"
     inkscape:window-width="2560"
     inkscape:window-height="1395"
     inkscape:window-x="-1"
     inkscape:window-y="1"
     inkscape:window-maximized="0"
     showguides="true"
     inkscape:guide-bbox="true"
     inkscape:pagecheckerboard="true"
     inkscape:snap-global="false" />
  <metadata
     id="metadata4821">
    <rdf:RDF>
      <cc:Work
         rdf:about="">
        <dc:format>image/svg+xml</dc:format>
        <dc:type
           rdf:resource="http://purl.org/dc/dcmitype/StillImage" />
        <dc:title></dc:title>
      </cc:Work>
    </rdf:RDF>
  </metadata>
  <g
     inkscape:label="Layer 1"
     inkscape:groupmode="layer"
     id="layer1"
     transform="translate(0,-572.3622)"
     style="display:inline">
    <g
       id="g50"
       transform="translate(-606.57326,-12.948375)">
      <path
        class="fill"
        style="opacity:1;fill-opacity:1;stroke:none;stroke-width:10.06999969;stroke-miterlimit:4;stroke-dasharray:none;stroke-opacity:1"
        d="M 66.867188 0.11132812 C 29.708588 0.11132812 -0.20703125 30.025094 -0.20703125 67.183594 L -0.20703125 413.03711 C -0.20703125 450.1957 29.708588 480.11133 66.867188 480.11133 L 412.7207 480.11133 C 449.8792 480.11133 479.79297 450.1957 479.79297 413.03711 L 479.79297 276.75391 L 474.56836 276.75391 L 444.79297 276.75391 L 442.56836 276.75391 L 349.31445 352.70117 L 349.32617 352.71289 L 349.20703 352.88086 C 348.88893 353.1239 348.57941 353.34192 348.25391 353.60742 C 342.05811 358.66078 331.47365 363.28287 317.31055 349.70703 C 316.55215 348.98013 314.96484 347.60156 314.96484 347.60156 L 277.81445 317.23633 C 289.14505 320.19929 302.21624 321.70429 316.33984 320.48633 C 325.19103 319.72299 333.77539 317.36193 341.99414 313.8418 L 352.79102 308.45508 C 378.56596 293.75354 399.88033 268.44142 413.01953 246.93555 C 431.96343 215.929 434.57703 176.26979 433.92383 164.73242 C 433.27063 153.19505 428.04297 109.20811 428.04297 99.833984 C 428.04297 90.459864 430.00391 84.693359 430.00391 84.693359 L 463.31836 71.712891 L 437.8418 47.195312 C 437.8418 47.195312 436.53754 34.215927 431.96484 24.841797 C 427.39214 15.467677 412.36593 5.3722344 387.54297 3.2089844 C 385.99149 3.0738244 384.43542 3 382.87695 3 C 354.19692 2.3983799 334.29511 12.659163 326.99414 23.689453 C 316.48402 39.568132 303.27754 89.739696 297.39844 109.20898 C 297.08707 110.2401 296.68095 111.32416 296.22266 112.43945 C 298.87963 114.67426 301.58358 117.15797 303.77734 119.17773 C 329.78008 139.827 317.56681 190.22468 301.25391 220.14844 C 286.94258 246.40059 268.30244 271.34998 250.43555 294.85742 L 250.29492 294.74219 C 247.58909 298.51969 244.59831 302.54368 241.45117 306.68945 C 241.11368 307.13423 240.75609 307.60329 240.41992 308.04688 L 240.42383 308.04688 C 237.03061 312.49502 233.45084 317.08762 229.77734 321.72656 L 308.32227 386.0625 C 311.23553 388.16866 314.11451 389.84732 316.92188 391.1875 L 316.92188 445.11133 L 110.82422 445.11133 L 110.82422 224.28906 L 179.12109 280.23242 C 182.38051 265.42097 184.52829 256.79106 188.06641 243.88086 L 110.61719 180.57812 L 289.07422 35.240234 L 289.07422 35.111328 L 289.07422 21.447266 L 289.07422 0.11132812 L 66.867188 0.11132812 z M 393.28125 31.796875 C 396.65954 31.671828 399.87059 32.868812 400.57422 37.601562 C 401.93972 46.786074 399.20106 50.720312 391.64648 52.263672 C 384.09194 53.807032 375.16406 51.491534 375.16406 46.089844 C 375.16406 40.688264 381.62254 34.946176 387.52539 32.972656 C 389.16682 32.423874 391.25427 31.871903 393.28125 31.796875 z M 71.353516 35.111328 L 235.78906 35.111328 L 234.74609 35.818359 C 187.2729 73.991874 139.7584 112.20122 92.308594 150.35547 C 82.397994 158.22093 76.867188 168.25712 76.867188 179.96094 C 76.867188 180.4456 76.889586 180.9248 76.910156 181.4043 L 76.880859 181.4043 L 76.880859 445.11133 L 71.353516 445.11133 C 51.099316 445.11133 34.792969 428.80497 34.792969 408.55078 L 34.792969 71.671875 C 34.792969 51.417675 51.099315 35.111328 71.353516 35.111328 z M 425.91992 44.759766 L 449.78906 68.048828 L 411.06836 82.929688 C 411.06836 82.929688 410.53932 75.812914 409.47852 69.990234 C 408.41782 64.167564 405.76562 61.580078 405.76562 61.580078 C 405.76563 61.580078 408.94726 54.463741 412.66016 50.582031 C 416.37296 46.700211 425.91992 44.759766 425.91992 44.759766 z M 282.10547 124.49805 C 274.74502 124.26863 266.17071 131.36764 261.70703 136.76172 C 250.14606 150.73245 247.87634 154.7875 241.73047 164.32617 C 235.31196 174.28799 229.14071 184.47758 224.13867 195.2207 C 215.13595 214.55627 208.04654 234.79895 201.96484 255.24219 C 198.37534 267.30804 194.87243 280.52858 191.56055 295.93555 C 184.73207 327.70188 181.82348 342.04816 181.26562 349.71484 C 181.04221 352.78516 182.17294 351.39394 183.20312 350.38281 C 197.70508 336.14903 209.89832 320.03865 216.93164 311.20312 C 224.44554 301.76387 230.80168 293.37239 237.44531 284.24023 C 264.92267 246.42533 270.74085 241.54957 286.64844 212.24023 C 304.34873 179.62787 308.04166 139.1942 286.94141 125.93945 C 285.43762 124.9948 283.80403 124.55099 282.10547 124.49805 z M 444.79297 319.02539 L 444.79297 408.55078 C 444.79297 428.80497 428.48866 445.11133 408.23438 445.11133 L 354.72656 445.11133 L 354.72656 391.93359 C 356.65921 390.95057 358.79714 389.59669 360.80273 387.73047 C 360.93593 387.65097 361.06687 387.58262 361.20117 387.49805 L 444.79297 319.02539 z "
        transform="translate(606.57326,585.31058)"
        id="rect5672" />
   </g>
  </g>
</svg>
